X:154
T:B154-  The Gaberlunzie Man
Q:1/4=120
L:1/4
M:3/4
K:Am
A3/4G/4|EAA3/4B/4|A2G/2A/2|Bc/2B/2 A/2G/2|E2D|\
D/2E/2GG|G3/4^F/4G3/4A/4 B3/4A/4|(GE)D/2B,/2|\
A,2A3/4G/4|(EA)A,|A2G|(AB)d|e2 g3/4d/4|\
Bc/2B/2 A/2G/2|Eed/2c/2|B3/2A/2 A3/4B/4|A2||G|\
(A/2B/2)cC|c2G|c3/4B/4c3/4d/4 e3/4f/4|(g3/2 a/2)g|\
d3/4e/4d3/4c/4 B3/4A/4|G2D|G3/4^F/4G/2 A/2 B/2c/2|\
d2g3/4f/4|(e d/2c/2) c3/4d/4|ccG|c3/4B/4c3/4d/4 e3/4^f/4|\
g2d/2c/2|Bc/2B/2 A/2G/2|Eed/2c/2|B3/2A/2 A3/4B/4|\
A2|]
